icons/notification-outlined-20px.svg

<svg width="20" height="20" viewBox="0 0 20 20" fill="none" xmlns="http://www.w3.org/2000/svg"><path d="M14.0068 8.26758C14.0066 6.21993 12.2347 4.50003 10.0185 4.5C7.79489 4.5 6.03046 6.2128 6.03026 8.26758V10.3232C6.03026 10.6036 5.9693 10.9277 5.88378 11.2207C5.79811 11.5141 5.67542 11.8185 5.52733 12.0547L5.52635 12.0566L4.666 13.415C4.47631 13.715 4.46661 13.9924 4.54979 14.2061C4.63417 14.4224 4.83964 14.6375 5.20213 14.7549C8.32752 15.7479 11.7008 15.7478 14.8262 14.7549H14.8281C15.4398 14.5625 15.671 13.9019 15.3633 13.4141V13.415L14.5029 12.0566L14.498 12.0488L14.9258 11.7891L14.498 12.0479C14.3559 11.8135 14.2358 11.5114 14.1514 11.2188C14.0672 10.9269 14.0068 10.6034 14.0068 10.3232V8.26758ZM8.56542 16.4346C8.63844 16.6732 8.76933 16.8885 8.94042 17.0596C9.21077 17.3299 9.59164 17.5 9.99999 17.5C10.6718 17.5 11.2448 17.0502 11.4336 16.4375C10.4791 16.5177 9.51973 16.5165 8.56542 16.4346ZM9.99901 2.5C9.76422 2.5 9.54687 2.5694 9.36522 2.68848C9.21925 2.78422 9.11661 2.93956 9.0537 3.18164C9.02052 3.30938 9.00094 3.45082 8.9912 3.60156C9.32328 3.53476 9.66709 3.5 10.0185 3.5C10.354 3.5 10.6827 3.53223 11.001 3.59375C10.9946 3.44336 10.9792 3.30303 10.9482 3.17676C10.8938 2.95543 10.8032 2.81054 10.6748 2.71777C10.485 2.58097 10.2519 2.50007 9.99901 2.5ZM15.0068 10.3232C15.0068 10.4769 15.0432 10.7017 15.1123 10.9414C15.1809 11.1794 15.2696 11.3927 15.3515 11.5283L16.208 12.8799L16.209 12.8809C16.8883 13.9579 16.3262 15.3322 15.1279 15.709L15.1269 15.708C14.2586 15.9838 13.3723 16.1858 12.4775 16.3174C12.3205 17.5447 11.2686 18.5 9.99999 18.5C9.315 18.5 8.68304 18.2163 8.23339 17.7666C7.85331 17.3865 7.59324 16.8761 7.52147 16.3135C6.63638 16.1817 5.75953 15.981 4.90038 15.708H4.89842C4.29039 15.5123 3.82723 15.1053 3.61815 14.5684C3.40779 14.0281 3.48002 13.4192 3.82128 12.8799L4.68163 11.5215C4.76499 11.3879 4.85462 11.1774 4.92381 10.9404C4.9935 10.7017 5.03026 10.4768 5.03026 10.3232V8.26758C5.03041 6.31584 6.25346 4.65755 7.98534 3.91602C7.98313 3.60597 8.00057 3.25936 8.08592 2.93066C8.18903 2.53367 8.39934 2.12614 8.81639 1.85254C9.15647 1.62948 9.56385 1.5 9.99901 1.5C10.4681 1.50007 10.9039 1.65054 11.2588 1.90625C11.637 2.17882 11.8271 2.56402 11.9189 2.9375C11.9982 3.25988 12.0087 3.59742 12.001 3.89648C13.7571 4.62946 15.0067 6.30326 15.0068 8.26758V10.3232Z" fill="currentColor"/></svg>

<svg xmlns="http://www.w3.org/2000/svg" width="20" height="20" fill="currentColor"><path fill="currentColor" d="M13.957 8.267c0-2.018-1.747-3.718-3.938-3.718-2.199 0-3.938 1.693-3.939 3.718v2.055c0 .287-.06.616-.147.911a3.5 3.5 0 0 1-.362.847l-.002.002-.86 1.358c-.182.289-.189.55-.112.747.078.2.271.407.623.52 3.114.99 6.477.99 9.592 0 .583-.184.798-.808.509-1.267l-.86-1.358-.006-.009a3.6 3.6 0 0 1-.351-.842 3.4 3.4 0 0 1-.147-.909zM8.64 16.49a1.46 1.46 0 0 0 1.36.96c.623 0 1.156-.4 1.36-.955-.906.072-1.816.07-2.721-.003M9.999 2.55a1.1 1.1 0 0 0-.606.18c-.133.087-.23.23-.29.464a2 2 0 0 0-.056.346 5.3 5.3 0 0 1 1.902-.007 2 2 0 0 0-.05-.344c-.052-.214-.137-.347-.253-.431a1.1 1.1 0 0 0-.647-.208m5.058 7.773c0 .148.035.368.104.605.066.23.152.436.23.567l.86 1.358v.002c.698 1.106.12 2.516-1.108 2.902l-.001-.001q-1.292.409-2.621.606A2.554 2.554 0 0 1 10 18.55a2.556 2.556 0 0 1-2.523-2.192 17 17 0 0 1-2.593-.602l-.002-.001c-.62-.2-1.096-.615-1.311-1.168-.217-.557-.141-1.182.208-1.734l.858-1.356.062-.11c.062-.124.125-.284.176-.461.07-.236.105-.456.105-.603V8.267c0-1.962 1.221-3.63 2.954-4.385 0-.304.02-.642.103-.965.106-.405.32-.825.751-1.107.348-.229.765-.36 1.21-.36a2.2 2.2 0 0 1 1.29.414c.39.282.585.68.68 1.06.077.317.089.646.083.94 1.757.746 3.005 2.428 3.005 4.403z"/></svg>
